X:30
T: WOHL AUF ES RUFT DER SONNENSCHEIN
N: B0517
O: Europa, Mitteleuropa, Deutschland
R: Wander - Lied
M: 2/4
L: 1/16
K: C
c2 | G2E2F2A2 | G3EC2
DE | F2E2D2C2 | G6
c2 | G2E2F2A2 | G3EC2
cB | A2A2d2d2 | G4z2
G2 | BcdBcdec | BcdBG2
G2 | f2e2d2c2 | B4z2
G2 | CDEFGABc | G3FE2
c2 | F2F2G2G2 | C4z2

@@@ Tune index: 2248
